src/images/single-assets/ankrFTM.svg

<svg width="120" height="120" viewBox="0 0 120 120" fill="none" xmlns="http://www.w3.org/2000/svg">
<g clip-path="url(#clip0_815_109)">
<path d="M52.1263 2.09055C56.9982 -0.696849 63.0006 -0.696849 67.8725 2.09055L106.673 24.2896C111.544 27.077 114.546 32.2284 114.546 37.8032V82.2014C114.546 87.7761 111.544 92.9275 106.673 95.7149L67.8725 117.914C63.0006 120.701 56.9982 120.701 52.1263 117.914L13.3262 95.7149C8.45433 92.9275 5.45312 87.7762 5.45312 82.2014V37.8032C5.45312 32.2284 8.45432 27.077 13.3262 24.2896L52.1263 2.09055Z" fill="#FFE81C"/>
<path d="M40.6656 39.6743L59.7902 30.4214C60.3404 30.1552 60.9821 30.1552 61.5323 30.4214L80.657 39.6743M40.6656 39.6743L60.6613 50.1661M40.6656 39.6743V60.4535M80.657 39.6743L60.6613 50.1661M80.657 39.6743V60.4535M60.6613 50.1661L40.6656 60.4535M60.6613 50.1661L80.657 60.4535M60.6613 50.1661V71.4222M40.6656 60.4535V81.2327L59.7803 90.611C60.336 90.8837 60.9866 90.8837 61.5422 90.611L80.657 81.2327V60.4535M40.6656 60.4535L60.6613 71.4222M80.657 60.4535L60.6613 71.4222M83.0094 33.2702C83.0094 33.2702 85.803 34.769 86.5381 36.1316C87.2732 37.4941 87.2732 40.6281 87.2732 40.6281M32.7261 80.5514C32.7261 80.5514 33.1672 83.4128 33.9023 84.7754C34.6374 86.138 37.578 87.228 37.578 87.228" stroke="black" stroke-width="2"/>
</g>
<defs>
<clipPath id="clip0_815_109">
<rect width="120" height="120" fill="white"/>
</clipPath>
</defs>
</svg>

<svg xmlns="http://www.w3.org/2000/svg" width="120" height="120" fill="none"><g clip-path="url(#a)"><path fill="#FFE81C" d="M52.126 2.09a15.87 15.87 0 0 1 15.747 0l38.8 22.2c4.871 2.787 7.873 7.938 7.873 13.513v44.398c0 5.575-3.002 10.727-7.873 13.514l-38.8 22.199a15.87 15.87 0 0 1-15.747 0l-38.8-22.2c-4.872-2.787-7.873-7.938-7.873-13.513V37.803c0-5.575 3.001-10.726 7.873-13.513z"/><path stroke="#000" stroke-width="2" d="m40.666 39.674 19.124-9.253a2 2 0 0 1 1.742 0l19.125 9.253m-39.991 0L60.66 50.166M40.666 39.674v20.78m39.991-20.78L60.661 50.166m19.996-10.492v20.78M60.661 50.165 40.666 60.454M60.66 50.165l19.996 10.288M60.661 50.165v21.256M40.666 60.454v20.779L59.78 90.61a2 2 0 0 0 1.762 0l19.115-9.378v-20.78m-39.991 0 19.995 10.97m19.996-10.97-19.996 10.97M83.01 33.27s2.794 1.499 3.53 2.862c.734 1.362.734 4.496.734 4.496M32.726 80.551s.441 2.862 1.176 4.224 3.676 2.453 3.676 2.453"/></g><defs><clipPath id="a"><path fill="#fff" d="M0 0h120v120H0z"/></clipPath></defs></svg>
